assets/icons/data-table-chart.svg

<svg width="16" height="16" viewBox="0 0 16 16" fill="none" xmlns="http://www.w3.org/2000/svg">
<g clip-path="url(#clip0_7142_27205)">
<path d="M1.26603 13.7624C0.936591 13.7624 0.619347 13.6378 0.377902 13.4137C0.136457 13.1895 -0.0113428 12.8824 -0.0358653 12.5539L-0.0390625 12.4567V2.01276C-0.0390625 1.32409 0.493589 0.760744 1.16884 0.710868L1.26603 0.707031H14.6942C15.3829 0.707031 15.9463 1.23968 15.9961 1.91557L16 2.01276V12.4567C15.9999 12.7861 15.8753 13.1034 15.6512 13.3448C15.4271 13.5863 15.12 13.7341 14.7914 13.7586L14.6942 13.7624H1.26603ZM4.8098 9.65917H1.07995V12.4567L1.07932 12.4669V12.5111C1.07932 12.5737 1.14134 12.6262 1.22319 12.6396L1.26603 12.6434L4.8098 12.6421V9.65917ZM10.0321 9.65917H5.92882V12.6428H10.0321V9.65917ZM14.881 9.65917H11.1511V12.6428H14.6942C14.7825 12.6428 14.8567 12.5999 14.8758 12.5411L14.881 12.5111V9.65917ZM10.0321 5.45917H5.92882V8.54015H10.0321V5.45917ZM4.8098 5.45917H1.07995V8.54015H4.8098V5.45917ZM14.881 5.45917H11.1511V8.54015H14.881V5.45917Z" fill="#1A6DD8"/>
</g>
<defs>
<clipPath id="clip0_7142_27205">
<rect width="16" height="16" fill="white"/>
</clipPath>
</defs>
</svg>

<svg xmlns="http://www.w3.org/2000/svg" width="16" height="16" fill="none" viewBox="0 0 16 16" data-c="1"><g clip-path="url(#a)"><path fill="#1A6DD8" d="M1.266 13.762a1.306 1.306 0 0 1-1.302-1.208l-.003-.097V2.013C-.04 1.324.494.76 1.169.71l.097-.004h13.428c.689 0 1.252.533 1.302 1.209l.004.097v10.444a1.306 1.306 0 0 1-1.209 1.302l-.097.003zM4.81 9.66H1.08v2.852c0 .063.061.115.143.129l.043.003H4.81zm5.222 0H5.93v2.984h4.103zm4.849 0h-3.73v2.984h3.543c.088 0 .163-.043.182-.102l.005-.03zm-4.849-4.2H5.93V8.54h4.103zm-5.222 0H1.08V8.54h3.73zm10.071 0h-3.73V8.54h3.73z"/></g><defs><clipPath id="a"><path fill="#fff" d="M0 0h16v16H0z"/></clipPath></defs></svg>
